src/icons/IconCopy/IconCopy_size_m.svg

<svg viewBox="0 0 24 24" xmlns="http://www.w3.org/2000/svg">
  <path
    d="M8 3C8 2.44727 8.44727 2 9 2H21C21.5527 2 22 2.44727 22 3V15C22 15.2109 21.9346 15.4082 21.8232 15.5703C21.6426 15.8301 21.3408 16 21 16H18V7C18 6.44727 17.5527 6 17 6H8V3Z"
  />
  <path
    d="M3 8C2.44727 8 2 8.44727 2 9V21C2 21.2617 2.10059 21.5 2.26465 21.6777C2.44727 21.875 2.70898 22 3 22H15C15.5527 22 16 21.5527 16 21V9C16 8.44727 15.5527 8 15 8H3Z"
  />
</svg>

<svg viewBox="0 0 24 24" xmlns="http://www.w3.org/2000/svg">
  <path d="M8 3a1 1 0 011-1h12a1 1 0 011 1v12a1.001 1.001 0 01-1 1h-3V7a1 1 0 00-1-1H8V3z" />
  <path d="M3 8a1 1 0 00-1 1v12a.996.996 0 001 1h12a1 1 0 001-1V9a1 1 0 00-1-1H3z" />
</svg>
